dist/img/svg/property__item-icon--9.svg

<svg width="48" height="48" viewBox="0 0 48 48" fill="none" xmlns="http://www.w3.org/2000/svg">
<circle cx="24" cy="24" r="24" fill="#1F2120"/>
<path d="M22.918 16C20.8497 16 18.4912 16.7956 16.541 18.1562C14.5909 19.5169 13 21.5323 13 24C13 26.4677 14.5909 28.4831 16.541 29.8438C18.4912 31.2044 20.8497 32 22.918 32C23.5785 32 24.1834 31.6256 24.5684 31.1543C24.9533 30.683 25.2038 30.1084 25.4062 29.4277C25.8111 28.0664 26 26.2507 26 24C26 21.7493 25.8111 19.9336 25.4062 18.5723C25.2038 17.8916 24.9533 17.317 24.5684 16.8457C24.1834 16.3744 23.5785 16 22.918 16ZM22.918 18C22.9095 18 22.8918 17.953 23.0195 18.1094C23.1472 18.2657 23.3352 18.6192 23.4902 19.1406C23.8004 20.1836 24 21.8677 24 24C24 26.1323 23.8004 27.8164 23.4902 28.8594C23.3352 29.3808 23.1472 29.7343 23.0195 29.8906C22.8918 30.047 22.9095 30 22.918 30C21.3953 30 19.2967 29.3272 17.6855 28.2031C16.0744 27.079 15 25.5933 15 24C15 22.4067 16.0744 20.921 17.6855 19.7969C19.2967 18.6728 21.3953 18 22.918 18ZM27.3008 18C27.4808 18.6 27.6305 19.27 27.7305 20H35V18H27.3008ZM27.9805 23C28.0005 23.32 28 23.66 28 24C28 24.34 28.0005 24.68 27.9805 25H35V23H27.9805ZM27.7305 28C27.6305 28.73 27.4808 29.4 27.3008 30H35V28H27.7305Z" fill="white"/>
</svg>

<svg width="48" height="48" viewBox="0 0 48 48" fill="none" xmlns="http://www.w3.org/2000/svg"><circle cx="24" cy="24" r="24" fill="#1F2120"/><path d="M22.918 16c-2.068 0-4.427.796-6.377 2.156C14.591 19.516 13 21.532 13 24c0 2.468 1.59 4.483 3.541 5.844C18.491 31.204 20.85 32 22.918 32c.66 0 1.265-.374 1.65-.846.385-.471.636-1.046.838-1.726C25.811 28.066 26 26.25 26 24s-.189-4.066-.594-5.428c-.202-.68-.453-1.255-.838-1.726-.385-.472-.99-.846-1.65-.846zm0 2c-.008 0-.026-.047.102.11.127.156.315.51.47 1.03.31 1.044.51 2.728.51 4.86s-.2 3.816-.51 4.86c-.155.52-.343.874-.47 1.03-.128.157-.11.11-.102.11-1.523 0-3.621-.673-5.232-1.797C16.074 27.08 15 25.593 15 24c0-1.593 1.074-3.079 2.686-4.203 1.61-1.124 3.71-1.797 5.232-1.797zm4.383 0c.18.6.33 1.27.43 2H35v-2h-7.7zm.68 5c.02.32.019.66.019 1 0 .34 0 .68-.02 1H35v-2h-7.02zm-.25 5c-.1.73-.25 1.4-.43 2H35v-2h-7.27z" fill="#fff"/></svg>
